src/24/duplicate-24.svg

<?xml version="1.0" encoding="iso-8859-1"?>
<!-- Generator: Adobe Illustrator 19.1.0, SVG Export Plug-In . SVG Version: 6.00 Build 0)  -->
<!DOCTYPE svg PUBLIC "-//W3C//DTD SVG 1.1 Tiny//EN" "http://www.w3.org/Graphics/SVG/1.1/DTD/svg11-tiny.dtd">
<svg version="1.1" baseProfile="tiny" id="Layer_1" xmlns="http://www.w3.org/2000/svg" xmlns:xlink="http://www.w3.org/1999/xlink"
	 x="0px" y="0px" viewBox="0 0 24 24" xml:space="preserve">
<g>
	<path d="M23.5,21h-20C3.224,21,3,20.776,3,20.5v-20C3,0.224,3.224,0,3.5,0h20C23.776,0,24,0.224,24,0.5v20
		C24,20.776,23.776,21,23.5,21z M4,20h19V1H4V20z"/>
	<path d="M15.5,18h-4c-0.276,0-0.5-0.224-0.5-0.5V13H6.5C6.224,13,6,12.776,6,12.5v-4C6,8.224,6.224,8,6.5,8H11V3.5
		C11,3.224,11.224,3,11.5,3h4C15.776,3,16,3.224,16,3.5V8h4.5C20.776,8,21,8.224,21,8.5v4c0,0.276-0.224,0.5-0.5,0.5H16v4.5
		C16,17.776,15.776,18,15.5,18z M12,17h3v-4.5c0-0.276,0.224-0.5,0.5-0.5H20V9h-4.5C15.224,9,15,8.776,15,8.5V4h-3v4.5
		C12,8.776,11.776,9,11.5,9H7v3h4.5c0.276,0,0.5,0.224,0.5,0.5V17z"/>
	<path d="M19.5,24h-19C0.224,24,0,23.776,0,23.5v-19C0,4.224,0.224,4,0.5,4H2v1H1v18h18v-1h1v1.5C20,23.776,19.776,24,19.5,24z"/>
</g>
</svg>

<svg baseProfile="tiny" xmlns="http://www.w3.org/2000/svg" viewBox="0 0 24 24"><path d="M23.5 21h-20a.5.5 0 0 1-.5-.5V.5a.5.5 0 0 1 .5-.5h20a.5.5 0 0 1 .5.5v20a.5.5 0 0 1-.5.5zM4 20h19V1H4v19z"/><path d="M15.5 18h-4a.5.5 0 0 1-.5-.5V13H6.5a.5.5 0 0 1-.5-.5v-4a.5.5 0 0 1 .5-.5H11V3.5a.5.5 0 0 1 .5-.5h4a.5.5 0 0 1 .5.5V8h4.5a.5.5 0 0 1 .5.5v4a.5.5 0 0 1-.5.5H16v4.5a.5.5 0 0 1-.5.5zM12 17h3v-4.5a.5.5 0 0 1 .5-.5H20V9h-4.5a.5.5 0 0 1-.5-.5V4h-3v4.5a.5.5 0 0 1-.5.5H7v3h4.5a.5.5 0 0 1 .5.5V17z"/><path d="M19.5 24H.5a.5.5 0 0 1-.5-.5v-19A.5.5 0 0 1 .5 4H2v1H1v18h18v-1h1v1.5a.5.5 0 0 1-.5.5z"/></svg>
